assets/static/images/kalda-rainbow-logo.svg

<svg width="32" height="32" viewBox="0 0 32 32" fill="none" xmlns="http://www.w3.org/2000/svg">
<path fill-rule="evenodd" clip-rule="evenodd" d="M30.8292 0.018709C29.3076 0.0943633 28.1255 0.218441 26.846 0.436882C21.8069 1.29707 17.0886 3.38754 12.9717 6.58401C10.7448 8.31312 8.70119 10.3744 6.99395 12.6138C3.78479 16.8231 1.59805 21.7364 0.59507 26.9912C0.331716 28.3709 0.141057 29.8642 0.0546355 31.224C0.0388639 31.4723 0.107186 30.5195 0.100053 30.6087L0.0770716 30.9283C0.035431 31.5073 0.493962 32 1.0745 32H7.19427H13.649C14.0885 32 14.4764 31.7131 14.6052 31.2929L14.7852 30.7052C14.8049 30.641 14.8181 30.5744 14.8248 30.5076C15.1468 27.294 15.9655 25.1239 17.8429 22.5044C18.1466 22.0807 18.5393 21.5719 18.7467 21.3333C20.2045 19.657 21.5329 18.5206 23.226 17.5016C25.7257 15.9971 27.774 15.432 30.7206 15.3081C30.7829 15.3055 30.8454 15.2973 30.9061 15.2834L31.2235 15.2106C31.6779 15.1064 32 14.7021 32 14.2359V7.51628V0.999999C32 0.447715 31.5523 0 31 0H30.8148C30.5373 0.00293474 30.9181 0.0142787 30.8292 0.018709Z" fill="#ffffff"/>
</svg>

<svg width="32" height="32" fill="none" xmlns="http://www.w3.org/2000/svg"><path fill-rule="evenodd" clip-rule="evenodd" d="M30.83.019c-1.522.075-2.704.2-3.984.418-5.04.86-9.757 2.95-13.874 6.147a33.132 33.132 0 00-5.978 6.03A34.28 34.28 0 00.595 26.99 35.117 35.117 0 00.1 30.61l-.023.32A1 1 0 001.075 32h12.574a1 1 0 00.956-.707l.18-.588c.02-.064.033-.13.04-.197.322-3.214 1.14-5.384 3.018-8.004.304-.423.696-.932.904-1.17 1.457-1.677 2.786-2.813 4.479-3.832 2.5-1.505 4.548-2.07 7.495-2.194a.895.895 0 00.185-.025l.318-.072a1 1 0 00.776-.975V1a1 1 0 00-1-1h-.185c-.278.003.103.014.014.019z" fill="#fff"/></svg>
